svgs/sharp-solid/up-from-line.svg

<svg xmlns="http://www.w3.org/2000/svg" viewBox="0 0 384 512"><!--! Font Awesome Pro 6.6.0 by @fontawesome - https://fontawesome.com License - https://fontawesome.com/license (Commercial License) Copyright 2024 Fonticons, Inc. --><path d="M32 192L192 32 352 192l0 32-96 0 0 160-128 0 0-160-96 0 0-32zm0 224l320 0 32 0 0 64-32 0L32 480 0 480l0-64 32 0z"/></svg>

<svg xmlns="http://www.w3.org/2000/svg" viewBox="0 0 384 512"><!--! Font Awesome Pro 6.4.2 by @fontawesome - https://fontawesome.com License - https://fontawesome.com/license (Commercial License) Copyright 2023 Fonticons, Inc. --><path d="M32 192L192 32 352 192v32H256V384H128V224H32V192zm0 224H352h32v64H352 32 0V416H32z"/></svg>
